build/documents/ScanSolid.svg

<svg xmlns="http://www.w3.org/2000/svg" fill="none" viewBox="0 0 24 24" focusable="false"><path d="M0 0H24V24H0z"/><path fill="#74767B" fill-rule="evenodd" d="M6.99987 3C5.34301 3 3.99987 4.34315 3.99987 6L3.99987 11.35L2.64853 11.35C2.28955 11.35 1.99854 11.641 1.99854 12C1.99854 12.359 2.28955 12.65 2.64853 12.65L21.3512 12.65C21.7102 12.65 22.0012 12.359 22.0012 12C22.0012 11.641 21.7102 11.35 21.3512 11.35L19.9999 11.35L19.9999 9.29679C19.9999 8.46926 19.658 7.67849 19.0553 7.11153L15.5502 3.81474C14.9937 3.29139 14.2586 3 13.4948 3L6.99987 3ZM4.29987 13.9444C4.13418 13.9444 3.99987 14.0788 3.99987 14.2444L3.99987 18C3.99987 19.6569 5.34301 21 6.99987 21L16.9999 21C18.6567 21 19.9999 19.6569 19.9999 18L19.9999 14.2444C19.9999 14.0788 19.8656 13.9444 19.6999 13.9444L4.29987 13.9444ZM14.9888 8.99986L18.3904 8.99986C18.6617 8.99986 18.7937 8.66829 18.5965 8.48187L14.1949 4.32027C14.0037 4.13942 13.6888 4.27502 13.6888 4.53826L13.6888 7.69986C13.6888 8.41784 14.2709 8.99986 14.9888 8.99986Z"/></svg>

<svg xmlns="http://www.w3.org/2000/svg" fill="none" viewBox="0 0 24 24" focusable="false"><path fill="#74767B" fill-rule="evenodd" d="M6.99 3c-1.65 0-3 1.34-3 3v5.35H2.64c-.36 0-.65.29-.65.65 0 .35.29.65.65.65h18.71c.36 0 .65-.3.65-.65 0-.36-.29-.65-.65-.65h-1.36V9.29c0-.83-.34-1.62-.94-2.18l-3.5-3.3c-.56-.52-1.3-.81-2.06-.81zm-2.7 10.94a.3.3 0 0 0-.3.3V18c0 1.65 1.35 3 3 3h10c1.66 0 3-1.35 3-3v-3.76c0-.17-.13-.3-.29-.3zm10.69-4.95h3.41c.27 0 .4-.33.2-.51l-4.4-4.16a.3.3 0 0 0-.51.21v3.16c0 .72.59 1.3 1.3 1.3"/></svg>
